X: 1
T: Waltz For Molly
R: waltz
M: 3/4
L: 1/8
K: Dmaj
|:"D" (f2 a3) f|"A" (e2a3) e|"Bm" d2 e2 f2|"G" B6|"F#m" A4 AG|"D"F4 FA|"G"(3GAG F2 G2|
"A" E3 FDE|"F#m" (F2 A3) F|"A7/E" (EF G3) E|"D/A" D2 F2 A2|"G" B6|"D" A2 F4|
[1 "A" E6|"D" D6--|(3DEF (3GAB "A"(3cde:|2 "A" E4 FE|"G6" D6|"D" D3 DC=C||
|:"Bm" B,D F3 D|"A#aug" ^A,D F3 D|"D/A" A,D F2B2|"F#m" A6|"G"B2 G3 B|"F#m" AG F2 FA|
"Bm" BA F2 D2|"Em" E3 FED|"Bm" DF AF AF|"D7/A" =CF AF AF|"Bm"B,D FB dc|
[1 "G" B4 Bc|"Bm" d2 B4|"A" A3 GFE|"D" D6|D3 DC=C:|
[2 "G" B6|"D" A2 F4|"A" E6|"D" D6-|(3DEF (3GAB (3cde||

